!!!OTL: Im Rosengarten (73), S. 209
!!!id: T0223
**kern
*clefG2
*k[f#]
*G:
{4d
=1
4.g
8f#
4b
=2
4.a
8g}
=3
{4a
=4
4.b
8cc
4b
=5
4a}
4r
=6
{8b
8dd
=7
4.cc
8b
8a
8b
=8
4b
4a}
=9
{4g
=10
4a
4g
8b
8dd
=11
4dd}
4r
=12
{8dd
8dd
=13
4.ee
8ee
8ee
8ee
=14
4dd
4cc}
=15
{4b
=16
4cc
4b
4a
=17
4g}
4r
==
*-
!!!minrhy: 8
!!!meters: 3/4 ]  ZZ[6
!!!cut: Im Rosengarten (73), S. 209
!!!reg: Luxemburg
!!!trd: Singendes Volk, Esch-Alzette 1937 posth.
!!!rhy1: X_  X_.XX_  X_.X
!!!rhy2: X_  X_.XX_  X_0_
!!!key: T0223  08  G 3/4 ]  ZZ[6
!!!mod: HEPTATONIK IONISCH]  AMBITUS[9
!!!kad: 122541
!!!akz: 12_32_43_25_65_41_
!!!fot: 'a__b__bs"c__bs'd__
!!!for: 'a__aw_b__c__b__d__
!!!fok: '^a_^__\__/__\__\__
!! PHRAS[AUFTAKTIG]
!!!fkt: Liebeslieder
!!!bem1: Boxhorn, hhh Michel Girres,
!!!bem2: mitgeteilt: hhh Heinrich Godefroid (Lehrer)
!! THILL, Mathias:
!! PR[36] 2K[4] 2G[2] 3K[4] 3G[4] 4A[9] 4Ü[0] 5A[0] 6K[0] 6G[2]
!! 7K[2] 7G[0] 8A[0] MEHR[0] SI[29] ABS[45] SR[7] SP[22]
!! ST[12] 2k[4] 2g[4] 3k[9] 3g[9] 4d[4] 4ü[2] 5d[2] 6k[0] 6g[0]
!! 7k[0] 7g[0] 8d[0] mehr[0] si[36] dm[-7] sr[9] sp[27]
!! 1F[8] 2F[88] 3F[4] 4F[0] LF[0] 2P[0] 3P[0] 4P[0] TRI[0] DF[3] AB[48]
!! TF[0] U3K[0] U3[2] U4[7] U4Ü[0] U5[15] U6K[0] U6[11] U7K[0] U7[2]
!! N1[26] N2K[0] N2[4] N3K[0] N3[15] N4[13] N4Ü[0] N5[4] N6K[0] N6[0]
!!!n7k: 0] N7[0] O1[0] O2K[0] O2[0] O3K[0] O3[0] HÖ[0
